X:475
T:Myra's Jig
M:6/8
L:1/8
K:A
e3|cBA AfA|eAf ecA|cBA ECE|F3 F2 e|\
cBA AfA|eAf aed|cBA FEF|1 A3 A2 e :|2 A3 A2 f |
L:1/16
e3 (f3 f2) (a4|a2)f2e2 c2B2A2|\
L:1/8
e2 f afe|cBB B2 f|\
L:1/16
e3 (f3 f2) (a4|a2)f2e2 c2B2A2|\
L:1/8
BAc BAF|1 A3 A2 e :|2 A3 A2 f |>|
